X: 2010
T: BECAUSE HE WAS A BONNY LAD
R: Reel.
%R: reel
B: James Kerr "Merry Melodies" v.2 p.4 #10
Z: 2016 John Chambers <jc:trillian.mit.edu>
M: C
L: 1/8
K: A
ud |\
cBAa (f/g/a) (ec) | dfec B/B/B (Bd) |\
cBAa (f/g/a) (ec) | dfec A/A/A A :|\
ud |\
cBAB cdec | dfec B/B/B (Bd) |
cBAB cdeug | agac A/A/A (Ad) |\
cAeA fAeA | dfec B/B/B (Bg) |\
afge fdec | dfec A/A/A A |]
